X:7
T:The Boys of the Lough
Z:Philippe Murphy 2006-04-14
S:Catherine McEvoy, Traditional Flute Music In The Sligo-Roscommon Style
R:reel
M:4/4
L:1/8
K:D
AF3 A3B | dffd efdB | AF3 DF3 | FEED EFGB |
AF3 A3B | dffd efdB | AF3 DF3 | GFEG FDDz |
AF3 A3B | dBBA Bed2 | AF3 DF3 | FEED EFGB |
AF3 A3B | dffd efdB | AF3 DF3 | GFEG FDDz ||
a3f gfef | dBBA Bed2 | AF3 DF3 | GAFA EFGE |
D2af gfef | dBBA Bed2 | AF3 DF3 | GFEG FDDz |
daaf gfef | dBBA Bed2 | AAFA dcde | (3fed gf e2fg |
abgb f3e | dBBA Bed2 | AF3 DF3 | GFEG FDDz |]
